src/assets/icons/real-estate/box.svg

<svg width="48" height="48" viewBox="0 0 48 48" fill="none" xmlns="http://www.w3.org/2000/svg">
<rect width="48" height="48" fill="white"/>
<path d="M27.1083 21.523L24.917 14.2971L34.4581 16.6565L36.5254 20.7458L27.1083 21.523ZM34.1559 28.6108L24.4685 32.6042V19.4884L25.4779 22.8177C25.6019 23.225 25.9817 23.5 26.405 23.5C26.4331 23.5 26.4593 23.5 26.4864 23.4971L34.1559 22.8646V28.6108ZM12.8436 22.8646L20.5131 23.4971C20.5412 23.5 20.5674 23.5 20.5945 23.5C21.0188 23.5 21.3976 23.225 21.5216 22.8177L22.531 19.4884V32.6042L12.8436 28.6108V22.8646ZM12.5423 16.6565L22.0835 14.2971L19.8922 21.523L10.475 20.7458L12.5423 16.6565ZM38.8979 21.155L35.9917 15.405C35.8648 15.1548 35.6342 14.9718 35.36 14.9047L23.7352 12.0297C23.7032 12.022 23.6722 12.024 23.6412 12.0182C23.5966 12.0125 23.5521 12.0019 23.5065 12.001C23.5036 12.001 23.5017 12 23.4998 12C23.4969 12 23.4959 12.001 23.4939 12.001C23.4484 12.0019 23.4039 12.0125 23.3593 12.0182C23.3283 12.024 23.2963 12.022 23.2653 12.0297L11.6404 14.9047C11.3663 14.9718 11.1357 15.1548 11.0088 15.405L8.1026 21.155C7.95826 21.4396 7.96698 21.776 8.12392 22.0539C8.28182 22.3308 8.5676 22.512 8.88825 22.5388L10.9061 22.7046V29.25C10.9061 29.6372 11.1425 29.986 11.5029 30.1345L23.121 34.9233C23.1229 34.9243 23.1239 34.9243 23.1258 34.9253L23.1278 34.9262C23.2469 34.976 23.3738 35 23.4998 35C23.6267 35 23.7536 34.976 23.8727 34.9262L23.8747 34.9253C23.8766 34.9243 23.8776 34.9243 23.8795 34.9233L35.4976 30.1345C35.858 29.986 36.0934 29.6372 36.0934 29.25V22.7046L38.1113 22.5388C38.4319 22.512 38.7177 22.3308 38.8756 22.0539C39.0335 21.776 39.0413 21.4396 38.8979 21.155Z" fill="#253238"/>
</svg>

<svg width="48" height="48" viewBox="0 0 48 48" fill="none" xmlns="http://www.w3.org/2000/svg"><path d="M27.108 21.523l-2.191-7.226 9.541 2.36 2.067 4.089-9.417.777zm7.048 7.088l-9.688 3.993V19.488l1.01 3.33a.969.969 0 00.927.682c.028 0 .054 0 .081-.003l7.67-.632v5.746zm-21.312-5.746l7.67.632a.968.968 0 001.008-.68l1.009-3.329v13.116l-9.687-3.993v-5.746zm-.302-6.208l9.542-2.36-2.192 7.226-9.417-.777 2.067-4.09zm26.356 4.498l-2.906-5.75a.965.965 0 00-.632-.5L23.735 12.03c-.032-.008-.063-.006-.094-.012-.044-.006-.089-.016-.134-.017L23.5 12l-.006.001c-.046 0-.09.011-.135.017-.03.006-.063.004-.094.012L11.64 14.905a.965.965 0 00-.631.5l-2.906 5.75a.95.95 0 00.02.899.971.971 0 00.765.485l2.018.166v6.545c0 .387.236.736.597.884l11.618 4.79.005.001.002.001a.965.965 0 00.745 0h.002l.005-.003 11.618-4.789a.958.958 0 00.595-.884v-6.545l2.018-.166a.971.971 0 00.765-.485.95.95 0 00.022-.899z" fill="#253238"/></svg>
